X:1
T:Redemption (Toy)
T:Redemption (Toy)
T:J. Lincoln Hall
T:Isaiah Toy, 1896
T:Public Domain Courtesy of the Cyber Hymnal™
T:Public Domain Courtesy of the Cyber Hymnal™
C:J. Lincoln Hall
Z:Public Domain
Z:Courtesy of the Cyber Hymnal™
%%score ( 1 2 ) 3
L:1/8
Q:1/4=95
M:4/4
K:C
V:1 treble 
V:2 treble 
V:3 bass 
V:1
 [EG] | [EG][Ec][Ec][Ec] [Ec]3 [EG] | [FA][Fc][Fc][Fc] [Ec]3 [Fd] | %3
w: 1.~A|sin- ner though I am, of|dark- est, deep- est shade, A|
w: 2.~This|love in- eff- a- ble my|heart hath pre- pos- sessed, And|
w: 3.~Well|might se- raph- ic tongues be|mute, with sac- red awe; And|
w: 4.~Heav’n’s|un- ex- am- pled love to|man, in Christ dis- played, Shall|
 [Ge]>[Fd] [Ec][EA] [EG]>[EA] [EG][CE] | [CE]2 [B,D]2 [B,D]3 [FG] | %5
w: right- eous- ness I claim, my own thro’|Je- sus made. Un-|
w: filled my fer- vid soul with won- der|un- ex- pressed; For|
w: Heav’n’s sub- lim- est songs sus- pend, while|an- gels saw A|
w: end- less won- der prove, un- fa- thomed,|un- por- trayed. E-|
 [EG][Ec][Ec][EB] [FB][FA][FA][FA] | [^FA][Fd][Fd][Fc] [=Fc][FB][FB][FA] | %7
w: num- bered worlds would not a- tone, But|Je- sus bore my sins a- lone, But|
w: thought or word seeks but in vain The|ho- ly mys- tery to ex- plain, The|
w: glimpse of what could not be told, Nor|can e- ter- ni- ty un- fold, Nor|
w: ter- nal love! the Of- fended dies To|bring the of- fender to the skies, To|
 [FG][FA][FB][Fc] [Fd]2 [Ge]2 | [Ec]6 z2 ||"^Refrain" c6 z2 | c7 [Fd] | %11
w: Je- sus bore my sins a-|lone.|||
w: ho- ly mys- tery to ex-|plain.|Saved,|O yes,|
w: can e- ter- ni- ty un-|fold.|||
w: bring the of- fender to the|skies.|||
 [Ge]>[Fd] [Ec][EA] [EG]>[EA] [EG][CE] | [CE]2 [B,D]2 [B,D]2 z2 | c6 z2 | c7 [Fd] | %15
w: ||||
w: I’m saved, Saved, O yes, I’m saved; Thro’|Je- sus’ blood|and|right- eous-|
w: ||||
w: ||||
 [Ge]>[Fd] [Ec][EA] [EG]>[EA] [EG][Ec] | [Fc]2 [FB]2 !fermata![Ec]3 |] %17
w: ||
w: ness, I now am saved: Saved, O yes,|I’m saved, Saved,|
w: ||
w: ||
V:2
 x | x8 | x8 | x8 | x8 | x8 | x8 | x8 | x8 || EEFF E2 x2 | EEFF E3 x | x8 | x8 | EEFF E2 x2 | %14
 EEFF E3 x | x8 | x7 |] %17
V:3
 [C,C] | [C,C][C,G,][C,G,][C,G,] [C,G,]3 [C,C] | [F,C][F,A,][F,A,][F,A,] [C,G,]3 [C,C] | %3
 [C,C]>[C,C] [C,C][C,C] [C,C]>[C,C] [C,C][C,G,] | [G,,G,]2 [G,,G,]2 [G,,G,]3 [G,B,] | %5
 [C,C][C,C][C,C][C,C] [C,C][C,C][C,C][C,C] | [D,D][D,D][D,D][D,D] [G,D][G,D][G,D][G,C] | %7
 [G,B,][G,C][G,D][G,C] [G,B,]2 [G,B,]2 | [C,C]6 z2 || [C,G,][C,G,][C,A,][C,A,] [C,G,]2 z2 | %10
 [C,G,][C,G,][C,A,][C,A,] [C,G,]3 [C,G,] | [C,C]>[C,C] [C,C][C,C] [C,C]>[C,C] [C,C][C,G,] | %12
 [G,,G,]2 [G,,G,]2 [G,,G,]2 z2 | [C,G,][C,G,][C,A,][C,A,] [C,G,]2 z2 | %14
 [C,G,][C,G,][C,A,][C,A,] [C,G,]3 [C,G,] | [C,C]>[C,C] [C,C][C,C] [C,C]>[C,C] [C,C][C,C] | %16
 [G,D]2 [G,D]2 !fermata![C,C]3 |] %17

